cisco.svg

<svg viewBox="0 0 24 24" xmlns="http://www.w3.org/2000/svg"><path d="M6.2625 8.70937C5.97472 8.70937 5.73958 8.94276 5.73958 9.23021L5.73958 14.7677C5.73958 15.0568 5.97472 15.2906 6.2625 15.2906C6.55017 15.2906 6.78542 15.0568 6.78542 14.7677L6.78542 9.23021C6.78542 8.94276 6.55017 8.70937 6.2625 8.70937ZM17.7375 8.70937C17.6656 8.70937 17.5979 8.7247 17.5354 8.75104C17.348 8.83008 17.2146 9.01462 17.2146 9.23021L17.2146 14.7677C17.2146 15.0568 17.4497 15.2906 17.7375 15.2906C18.0253 15.2906 18.2604 15.0568 18.2604 14.7677L18.2604 9.23021C18.2604 8.94276 18.0253 8.70937 17.7375 8.70937ZM3.39167 10.676C3.10389 10.676 2.86875 10.9095 2.86875 11.1969L2.86875 13.7281C2.86875 14.0171 3.10389 14.249 3.39167 14.249C3.67945 14.249 3.91458 14.0171 3.91458 13.7281L3.91458 11.1969C3.91458 10.9095 3.67944 10.676 3.39167 10.676ZM9.13125 10.676C8.84347 10.676 8.61042 10.9095 8.61042 11.1969L8.61042 13.7281C8.61042 14.0171 8.84347 14.249 9.13125 14.249C9.41903 14.249 9.65417 14.0171 9.65417 13.7281L9.65417 11.1969C9.65416 10.9095 9.41903 10.676 9.13125 10.676ZM14.8687 10.676C14.581 10.676 14.3458 10.9095 14.3458 11.1969L14.3458 13.7281C14.3458 14.0171 14.581 14.249 14.8687 14.249C15.1565 14.249 15.3896 14.0171 15.3896 13.7281L15.3896 11.1969C15.3896 10.9095 15.1565 10.676 14.8687 10.676ZM20.6083 10.676C20.3206 10.676 20.0854 10.9095 20.0854 11.1969L20.0854 13.7281C20.0854 14.0171 20.3206 14.249 20.6083 14.249C20.8961 14.249 21.1312 14.0171 21.1312 13.7281L21.1312 11.1969C21.1312 10.9095 20.8961 10.676 20.6083 10.676ZM0.522917 12.1115C0.235472 12.1115 4.23855e-07 12.3448 0 12.6323L0 13.7281C0 14.0171 0.235471 14.249 0.522917 14.249C0.810695 14.249 1.04583 14.0171 1.04583 13.7281L1.04583 12.6323C1.04583 12.3448 0.810695 12.1115 0.522917 12.1115ZM11.9979 12.1115C11.9261 12.1115 11.8583 12.1268 11.7958 12.1531C11.6085 12.2321 11.475 12.4167 11.475 12.6323L11.475 13.7281C11.475 13.9449 11.6085 14.1303 11.7958 14.2094C11.8587 14.2362 11.9295 14.249 12.0021 14.249C12.0731 14.2484 12.1425 14.2357 12.2042 14.2094C12.3915 14.1303 12.525 13.9449 12.525 13.7281L12.525 12.6323C12.525 12.4167 12.3915 12.2321 12.2042 12.1531C12.2035 12.1529 12.2027 12.1534 12.2021 12.1531C12.1396 12.1268 12.0699 12.1115 11.9979 12.1115ZM23.4771 12.1115C23.1893 12.1115 22.9542 12.3448 22.9542 12.6323L22.9542 13.7281C22.9542 14.0171 23.1893 14.249 23.4771 14.249C23.7645 14.249 24 14.0171 24 13.7281L24 12.6323C24 12.3448 23.7645 12.1115 23.4771 12.1115Z" fill="#049fd9"/></svg>

<svg viewBox="0 0 24 24" xmlns="http://www.w3.org/2000/svg"><path d="M6.263 8.71a.523.523 0 0 0-.523.52v5.538a.523.523 0 0 0 1.045 0V9.23a.523.523 0 0 0-.522-.52Zm11.475 0a.522.522 0 0 0-.523.52v5.538a.523.523 0 0 0 1.045 0V9.23a.523.523 0 0 0-.523-.52ZM3.392 10.675a.523.523 0 0 0-.523.52v2.532c0 .29.235.521.523.521a.522.522 0 0 0 .523-.52v-2.532a.523.523 0 0 0-.523-.521Zm5.74 0a.521.521 0 0 0-.522.52v2.532a.522.522 0 0 0 1.044 0v-2.531a.523.523 0 0 0-.523-.521Zm5.737 0a.523.523 0 0 0-.523.52v2.532a.522.522 0 0 0 1.044 0v-2.531a.521.521 0 0 0-.521-.521Zm5.74 0a.523.523 0 0 0-.524.52v2.532a.522.522 0 0 0 1.046 0v-2.531a.523.523 0 0 0-.523-.521ZM.522 12.111a.523.523 0 0 0-.523.521v1.096a.522.522 0 0 0 1.046 0v-1.096a.523.523 0 0 0-.523-.52Zm11.475 0a.522.522 0 0 0-.523.52v1.097a.524.524 0 0 0 .73.481.524.524 0 0 0 .32-.48v-1.097c0-.215-.133-.4-.32-.479h-.003a.528.528 0 0 0-.204-.042Zm11.48 0a.523.523 0 0 0-.524.521v1.096a.522.522 0 0 0 1.046 0v-1.096a.523.523 0 0 0-.523-.52Z" fill="#049fd9"/></svg>
